svgs/solid/rectangle-terminal.svg

<svg xmlns="http://www.w3.org/2000/svg" viewBox="0 0 512 512"><!--! Font Awesome Pro 6.5.1 by @fontawesome - https://fontawesome.com License - https://fontawesome.com/license (Commercial License) Copyright 2023 Fonticons, Inc. --><path d="M0 96C0 60.7 28.7 32 64 32H448c35.3 0 64 28.7 64 64V416c0 35.3-28.7 64-64 64H64c-35.3 0-64-28.7-64-64V96zm102.3 55.8c-9 9.8-8.3 25 1.5 33.9L180.5 256l-76.7 70.3c-9.8 9-10.4 24.1-1.5 33.9s24.1 10.4 33.9 1.5l96-88c5-4.5 7.8-11 7.8-17.7s-2.8-13.1-7.8-17.7l-96-88c-9.8-9-25-8.3-33.9 1.5zM248 336c-13.3 0-24 10.7-24 24s10.7 24 24 24H392c13.3 0 24-10.7 24-24s-10.7-24-24-24H248z"/></svg>

<svg xmlns="http://www.w3.org/2000/svg" viewBox="0 0 512 512"><!--! Font Awesome Pro 6.1.1 by @fontawesome - https://fontawesome.com License - https://fontawesome.com/license (Commercial License) Copyright 2022 Fonticons, Inc. --><path d="M0 96C0 60.65 28.65 32 64 32H448C483.3 32 512 60.65 512 96V416C512 451.3 483.3 480 448 480H64C28.65 480 0 451.3 0 416V96zM102.3 151.8C93.35 161.6 94.01 176.7 103.8 185.7L180.5 256L103.8 326.3C94.01 335.3 93.35 350.4 102.3 360.2C111.3 369.1 126.4 370.6 136.2 361.7L232.2 273.7C237.2 269.1 240 262.7 240 255.1C240 249.3 237.2 242.9 232.2 238.3L136.2 150.3C126.4 141.4 111.3 142 102.3 151.8V151.8zM248 336C234.7 336 224 346.7 224 360C224 373.3 234.7 384 248 384H392C405.3 384 416 373.3 416 360C416 346.7 405.3 336 392 336H248z"/></svg>
